X: 983
T: Alla Lopper
R: mazurka
M: 3/4
K: Gmajor
|:^A/|B>c d2 e>d|(3BdB G2- G>D|B>c d2 e>d|(3cdc A2- A>^G|
[1 A>B c2 d2|f>e d2- d>e|f>e d>c B>A|c<B B2- B3/2:|
[2 A>B c2- c>d|f>e d2- d>g|f>e d>c A<F|G2 G2- G3/2||
|:g/|b>g e2- e>g|b>g d2- d>g|f>e d>c B<A|G>G B>d (3gfg|
b>g e2- e>g|b>g d2- d>g|f>e d>c A<F|G2 G2- G3/2:|

